apps/web/public/icons/dropdown/feedback.svg

<svg width="26" height="24" viewBox="0 0 26 24" fill="none" xmlns="http://www.w3.org/2000/svg">
<path d="M17.0804 6.39734H17.0204M21.0403 6.39734H20.9803M17.1404 6.39734C17.1404 6.42917 17.1277 6.45969 17.1052 6.48219C17.0827 6.5047 17.0522 6.51734 17.0204 6.51734C16.9886 6.51734 16.958 6.5047 16.9355 6.48219C16.913 6.45969 16.9004 6.42917 16.9004 6.39734C16.9004 6.36552 16.913 6.33499 16.9355 6.31249C16.958 6.28999 16.9886 6.27734 17.0204 6.27734C17.0522 6.27734 17.0827 6.28999 17.1052 6.31249C17.1277 6.33499 17.1404 6.36552 17.1404 6.39734ZM21.1003 6.39734C21.1003 6.42917 21.0877 6.45969 21.0652 6.48219C21.0427 6.5047 21.0122 6.51734 20.9803 6.51734C20.9485 6.51734 20.918 6.5047 20.8955 6.48219C20.873 6.45969 20.8603 6.42917 20.8603 6.39734C20.8603 6.36552 20.873 6.33499 20.8955 6.31249C20.918 6.28999 20.9485 6.27734 20.9803 6.27734C21.0122 6.27734 21.0427 6.28999 21.0652 6.31249C21.0877 6.33499 21.1003 6.36552 21.1003 6.39734Z" stroke="#DFDFDF" stroke-width="2" stroke-linecap="round" stroke-linejoin="round"/>
<path d="M25.0002 6.73954C25.0002 9.90991 22.3134 12.4803 19.0002 12.4803C18.6098 12.4803 18.223 12.4443 17.8398 12.3723L17.8109 12.367C17.5541 12.3201 17.4224 12.296 17.3299 12.3099C17.2361 12.3239 17.1034 12.3941 16.8436 12.5315L16.8247 12.5415C16.0489 12.9548 15.1562 13.0939 14.2915 12.9363C14.6215 12.5271 14.8453 12.0428 14.9431 11.5263C15.0031 11.2083 14.8543 10.8999 14.6323 10.6743C13.6207 9.64711 13.0003 8.26353 13.0003 6.73954C13.0003 3.57037 15.6871 1 19.0002 1C22.3134 1 25.0002 3.56917 25.0002 6.73954Z" stroke="#DFDFDF" stroke-width="2" stroke-linecap="round" stroke-linejoin="round"/>
<path d="M10.3263 14.3775C10.5072 13.9408 10.6003 13.4726 10.6003 12.9999C10.6003 12.0451 10.221 11.1294 9.54591 10.4543C8.87079 9.77919 7.95512 9.39991 7.00035 9.39991C6.04558 9.39991 5.12992 9.77919 4.4548 10.4543C3.77967 11.1294 3.40039 12.0451 3.40039 12.9999C3.40039 13.4726 3.49351 13.9408 3.67442 14.3775C3.85534 14.8143 4.12051 15.2111 4.4548 15.5454C4.78908 15.8797 5.18594 16.1449 5.62271 16.3258C6.05948 16.5067 6.5276 16.5998 7.00035 16.5998C7.47311 16.5998 7.94123 16.5067 8.378 16.3258C8.81477 16.1449 9.21163 15.8797 9.54591 15.5454C9.8802 15.2111 10.1454 14.8143 10.3263 14.3775Z" stroke="#DFDFDF" stroke-width="2" stroke-linecap="round" stroke-linejoin="round"/>
<path d="M12.9999 22.5976C12.9999 21.0063 12.3677 19.4802 11.2425 18.355C10.1173 17.2298 8.59122 16.5977 6.99994 16.5977C5.40866 16.5977 3.88255 17.2298 2.75734 18.355C1.63213 19.4802 1 21.0063 1 22.5976" stroke="#DFDFDF" stroke-width="2" stroke-linecap="round" stroke-linejoin="round"/>
</svg>

<svg xmlns="http://www.w3.org/2000/svg" width="26" height="24" fill="none" viewBox="0 0 26 24"><path stroke="#dfdfdf" stroke-linecap="round" stroke-linejoin="round" stroke-width="2" d="M17.08 6.397h-.06m4.02 0h-.06m-3.84 0a.12.12 0 1 1-.24 0 .12.12 0 0 1 .24 0m3.96 0a.12.12 0 1 1-.24 0 .12.12 0 0 1 .24 0"/><path stroke="#dfdfdf" stroke-linecap="round" stroke-linejoin="round" stroke-width="2" d="M25 6.74c0 3.17-2.687 5.74-6 5.74a6.3 6.3 0 0 1-1.16-.108l-.03-.005c-.256-.047-.388-.071-.48-.057-.094.014-.227.084-.486.221l-.02.01a3.9 3.9 0 0 1-2.533.395c.33-.409.554-.893.652-1.41.06-.318-.089-.626-.31-.852A5.6 5.6 0 0 1 13 6.74C13 3.57 15.687 1 19 1s6 2.57 6 5.74M10.326 14.378a3.6 3.6 0 1 0-6.652-2.756 3.6 3.6 0 0 0 6.652 2.755"/><path stroke="#dfdfdf" stroke-linecap="round" stroke-linejoin="round" stroke-width="2" d="M13 22.598a6 6 0 0 0-12 0"/></svg>
